assets/icons/no-package/filled.svg

<?xml version="1.0" encoding="UTF-8" standalone="no"?>
<svg
   viewBox="0 0 24 24"
   height="24"
   id="svg7384"
   version="1.1"
   width="24"
   sodipodi:docname="filled.svg"
   inkscape:version="1.2 (1:1.2.1+202207142221+cd75a1ee6d)"
   xmlns:inkscape="http://www.inkscape.org/namespaces/inkscape"
   xmlns:sodipodi="http://sodipodi.sourceforge.net/DTD/sodipodi-0.dtd"
   xmlns="http://www.w3.org/2000/svg"
   xmlns:svg="http://www.w3.org/2000/svg"
   xmlns:rdf="http://www.w3.org/1999/02/22-rdf-syntax-ns#"
   xmlns:cc="http://creativecommons.org/ns#"
   xmlns:dc="http://purl.org/dc/elements/1.1/">
  <sodipodi:namedview
     id="namedview25"
     pagecolor="#ffffff"
     bordercolor="#666666"
     borderopacity="1.0"
     inkscape:pageshadow="2"
     inkscape:pageopacity="0.0"
     inkscape:pagecheckerboard="0"
     showgrid="false"
     inkscape:zoom="19.79899"
     inkscape:cx="21.263711"
     inkscape:cy="10.32881"
     inkscape:window-width="1920"
     inkscape:window-height="1016"
     inkscape:window-x="0"
     inkscape:window-y="0"
     inkscape:window-maximized="1"
     inkscape:current-layer="svg7384"
     inkscape:snap-page="true"
     inkscape:showpageshadow="2"
     inkscape:deskcolor="#d1d1d1">
    <inkscape:grid
       type="xygrid"
       id="grid1209" />
  </sodipodi:namedview>
  <metadata
     id="metadata20854">
    <rdf:RDF>
      <cc:Work
         rdf:about="">
        <dc:format>image/svg+xml</dc:format>
        <dc:type
           rdf:resource="http://purl.org/dc/dcmitype/StillImage" />
      </cc:Work>
    </rdf:RDF>
  </metadata>
  <defs
     id="defs7386">
    <linearGradient
       id="linearGradient5606"
       inkscape:swatch="solid">
      <stop
         id="stop5608"
         offset="0"
         style="stop-color:#000000;stop-opacity:1;" />
    </linearGradient>
    <linearGradient
       id="linearGradient4526"
       inkscape:swatch="solid">
      <stop
         id="stop4528"
         offset="0"
         style="stop-color:#ffffff;stop-opacity:1;" />
    </linearGradient>
    <linearGradient
       id="linearGradient3600-4"
       inkscape:swatch="gradient">
      <stop
         id="stop3602-7"
         offset="0"
         style="stop-color:#f4f4f4;stop-opacity:1" />
      <stop
         id="stop3604-6"
         offset="1"
         style="stop-color:#dbdbdb;stop-opacity:1" />
    </linearGradient>
  </defs>
  <path
     id="path866"
     style="color:#000000;fill:#808080;fill-opacity:1;-inkscape-stroke:none"
     d="M 6.7871094 3 C 6.210278 3.0047633 5.7086535 3.0383209 5.2578125 3.2050781 L 11 9.2851562 L 11 4.5 L 11 4 L 11.5 4 L 12 4 L 12 4.5 L 12 10.34375 L 19 17.755859 L 19 5.5 C 19 4.9583344 18.9364 4.5160816 18.769531 4.140625 C 18.602661 3.7651684 18.312099 3.4724554 17.972656 3.3027344 C 17.293772 2.9632923 16.499998 3 15.5 3 L 7.5 3 C 7.2500003 3 7.012758 2.99814 6.7871094 3 z M 4.4375 3.7949219 C 4.3569258 3.9003879 4.2862195 4.015186 4.2304688 4.140625 C 4.0635991 4.5160816 4 4.9583344 4 5.5 L 4 18.5 C 4 19.041665 4.0635991 19.483918 4.2304688 19.859375 C 4.3973386 20.234832 4.6879018 20.527544 5.0273438 20.697266 C 5.7062278 21.036707 6.500002 21 7.5 21 L 15.5 21 C 16.499998 21 17.293772 21.036709 17.972656 20.697266 C 18.312099 20.527544 18.602661 20.234832 18.769531 19.859375 C 18.861968 19.651394 18.921229 19.420534 18.957031 19.166016 L 16.806641 16.890625 C 16.721682 16.957346 16.61689 17 16.5 17 L 13.5 17 C 13.223 17 13 16.777 13 16.5 C 13 16.223 13.223 16 13.5 16 L 15.964844 16 L 12 11.800781 L 12 19.5 L 12 20 L 11.5 20 L 11 20 L 11 19.5 L 11 10.742188 L 4.4375 3.7949219 z M 6.5 15 L 9.5 15 C 9.7769997 15 10 15.223 10 15.5 L 10 18.5 C 10 18.777 9.7769997 19 9.5 19 L 6.5 19 C 6.2230003 19 6 18.777 6 18.5 L 6 15.5 C 6 15.223 6.2230003 15 6.5 15 z M 13.5 18 L 16.5 18 C 16.777 18 17 18.223 17 18.5 C 17 18.777 16.777 19 16.5 19 L 13.5 19 C 13.223 19 13 18.777 13 18.5 C 13 18.223 13.223 18 13.5 18 z " />
  <path
     style="color:#000000;fill:#808080;-inkscape-stroke:none"
     d="m 3.3632813,2.65625 -0.7265625,0.6875 17.0000002,18 0.726562,-0.6875 z"
     id="path1023" />
</svg>

<svg height="24" width="24" xmlns="http://www.w3.org/2000/svg"><path style="color:#000;fill:gray;fill-opacity:1;-inkscape-stroke:none" d="M6.787 3c-.577.005-1.078.038-1.53.205L11 9.285V4h1v6.344l7 7.412V5.5c0-.542-.064-.984-.23-1.36a1.72 1.72 0 0 0-.797-.837C17.293 2.963 16.5 3 15.5 3h-8c-.25 0-.487-.002-.713 0zm-2.35.795a1.72 1.72 0 0 0-.207.346C4.064 4.516 4 4.958 4 5.5v13c0 .542.064.984.23 1.36.167.375.458.668.797.837.68.34 1.473.303 2.473.303h8c1 0 1.794.037 2.473-.303.34-.17.63-.462.797-.838a2.6 2.6 0 0 0 .187-.693l-2.15-2.275A.494.494 0 0 1 16.5 17h-3a.499.499 0 1 1 0-1h2.465L12 11.8V20h-1v-9.258L4.437 3.795zM6.5 15h3c.277 0 .5.223.5.5v3c0 .277-.223.5-.5.5h-3a.499.499 0 0 1-.5-.5v-3c0-.277.223-.5.5-.5zm7 3h3a.499.499 0 1 1 0 1h-3a.499.499 0 1 1 0-1z"/><path style="color:#000;fill:gray;-inkscape-stroke:none" d="m3.363 2.656-.726.688 17 18 .726-.688z"/></svg>
